X:1
T:Major Hedleys Quick March
T:Major Hedleys Quick March
T:Abraham Mackintosh
C:Abraham Mackintosh
%%score 1 2 3
L:1/8
M:2/4
K:F
V:1 treble 
V:2 treble 
V:3 bass 
V:1
 F/G/ | AAEF | FF/G/ Ac | c2 gf | (f2 e)G | F A2 F | F2 CD | [G,E] [G,E]2 [G,E] | FA A :| z | %10
 c3 A | G4 | A3 F | E4 | F3 D | CA,CF | F2 EF | F2 E2 | c3 A | G4 | A3 F | E4 | F3 D | C A2 B | %24
{B} AG/F/{A} GF/E/ | FC A, |] %26
V:2
 A/B/ | cccc | d/c/d/e/ ff | efba | (a2 g)B | A{B}c{d} c{B}A | B{c}d{e} fg/f/ | egcb | af f :| c | %10
 f>gaf | ge c2 | d>efd | ec A2 | B>cdB | Acfc | edBA | A2 G2 | f>gaf | ge c2 | d>efd | ec A2 | %22
 B>c{d} dc/B/ | Ac{e} fe/d/ |{d} cB/A/{c} BA/G/ | F3 |] %26
V:3
 z | z F,G,A, | B,2 A,2 | B,A,E,F, | CC, CE, | F,F,, F,_E, | D,B,,A,,B,, | C,2 C,,2 | F,,F, F,, :| %9
 z | A,2 F,2 | C2 E,2 | F,2 D,2 | A,2 C,2 | D,2 B,,2 | F,2 A,2 | B,A,G,F, | CC,CB, | A,2 F,2 | %19
 C2 E,2 | F,2 D,2 | A,2 C,2 | D,2 B,,2 | F,2 D,B,, | C,2 C,,2 | F,2 F,, |] %26

